X: 167
T: The New Stove Jig
T: Jig, D
C: Frank Ferrel
L: 1/16
M: 6/8
K: D
f6 e6| d2e2d2 d2A2F2| D2F2A2 d2e2d2| B2B2B2 B6| g6 e6| c2d2c2 c4B2| A2B2A2 B2A2G2| F6 F4A2| 
f6 e6| d2e2d2 d2A2F2| D2F2A2 d2e2d2| B2B2B2 B6| g6 e6| c2d2c2 c4B2| A2b2a2 g2B2c2| d6 d2F2G2|| 
A6 A2F2D2| A,2D2F2 A4F2| D2F2A2 d2e2d2| B6 B6| g6 e6| c2d2c2 c4B2| A2B2A2 B2A2G2| F6 F4A2| 
f6 e6| d2e2d2 d2A2F2| D2F2A2 d2e2d2| B2B2B2 B6| B2g2g2 g4B2| A2f2f2 f4a2| g2e2c2 A2B2c2| d6 d6|| 
D: Buddy MacMaster, Judique on the Floor, ACD-9020
